X:362
%%etbk:tnset id:163,pos:1,rep:3x,ant:
%%etbk:pldat 2016-08-03T16:36,2014-09-24T16:56,2014-09-16T18:39,2014-05-11T12:05,2014-05-09T19:20,2014-03-20T18:03,2014-03-13T18:43,2014-03-02T16:54,2014-03-01T16:11,2014-02-15T15:42,2014-02-12T18:31,2014-02-11T17:55,2014-02-09T10:55,2014-02-06T17:58,2013-11-27T18:06,2013-09-29T16:23,2013-05-22T17:08,2013-05-18T14:06,2013-05-14T18:31,2013-05-01T17:02,2013-04-30T15:32
T:My Former Wife
Z: Piano Box Version by Martin Fleischmann
H: Created 2013-02-19 /  Last Modified 2013-02-19
M:6/8
L:1/8
R:jig
K:Ador
|: "am"!1!E!3!AA !3!AB!5!c | !4!BAG !5!c2A | "em"!4!B!2!G!1!E !1!E!2!E!1!E | !4!GE!1!D "D"!1!D2!3!A |
"am"!1!E!3!A!1!A !1!ABc | !2!B!1!A!2!B !1!G!2!B!3!d | "G"!4!e!3!d!4!e !5!g!3!d!2!B |1 !2!B!1!A!2!G "am"!3!A2!2!G:|2 !2!B!1!A!2!G "am"!1!A2!2!e||
|: "am"!1!efg !4!a!3!a!4!a | !5!bag !4!a2g | "em"!2!ede !3!g2g | !3!g!5!ba !3!ge!1!d |
"am"!1!efg !4!aga | !5!bag !4!a2g | "em"!2!ede !4!g!1!d!2!B |1 !2!B!1!A!2!G "am"!1!A2!2!e :||2 !2!B!1!A!2!G "am"!3!A2!2!G||


